icons/svg/16x16/side panel/outline.svg

<svg width="16" height="16" fill="none" xmlns="http://www.w3.org/2000/svg">
  <path fill-rule="evenodd" clip-rule="evenodd" d="M14 11.5c0 .275-.225.5-.5.5h-1.314V4H13.5c.275 0 .5.225.5.5v7zm-12 0v-7c0-.275.225-.5.5-.5h7.686v8H2.5a.501.501 0 01-.5-.5zM13.5 2h-11A2.502 2.502 0 000 4.5v7C0 12.879 1.121 14 2.5 14h11c1.379 0 2.5-1.121 2.5-2.5v-7C16 3.121 14.879 2 13.5 2z" fill="#000"/>
</svg>

<svg xmlns="http://www.w3.org/2000/svg" width="16" height="16" viewBox="0 0 16 16">
  <path fill-rule="evenodd" d="M14,11.5 C14,11.775 13.775,12 13.5,12 L12.186,12 L12.186,4 L13.5,4 C13.775,4 14,4.225 14,4.5 L14,11.5 Z M2,11.5 L2,4.5 C2,4.225 2.225,4 2.5,4 L10.186,4 L10.186,12 L2.5,12 C2.225,12 2,11.775 2,11.5 L2,11.5 Z M13.5,2 L2.5,2 C1.121,2 0,3.121 0,4.5 L0,11.5 C0,12.879 1.121,14 2.5,14 L13.5,14 C14.879,14 16,12.879 16,11.5 L16,4.5 C16,3.121 14.879,2 13.5,2 L13.5,2 Z"/>
</svg>
